X:398
T:Santa Claus
C:Bill Monroe
N:Transcribed by Clyde H Clevenger
R:bluegrass
L:1/8
Q:1/4=120
M:4/4
K:G
"G"d/d'/b/a/ g/e/d/e/ d/B/A/G/ GD/D/ | "C"D/E/G/B/ A/G/G/A/ "G"B[GG,] [GG,]^c/d/ | 
"G"d/d'/b/a/ g/e/d/e/ d/B/A/G/ GD/D/ | "A"E/GF/ G/G/F/F/ "D"[dF][dF] [dF]A/A/ | 
"G"d/d'/b/a/ g/e/d/e/ d/B/A/G/ GD/D/ | "C"E/G/G/B/ A/G/G/A/ "B7"{^A}BB/B/ BD/D/ | 
"C"E/GB/ A/G/G/A/ "G"B/A/G/E/ "E"Ee/e/ | "A"d/BB/ "D"A/B/A/F/ "G"GG/G/ Ge/f/ | 
"G"g/d/e/f/ g/d/e/g/ g/a/g/e/ d/c/B/A/ | "C"G/G/G/B/ A/G/G/B/ "G"BG, [gBG]e/g/ | 
"G"g/a/e/g/ g/e/g/g/ g/a/g/e/ d/B/B/d/ | "A"A/^c/c/[a/c/] [a/c/][a/c/][a/c/][A/D/] "D"[dF]z [dF]e/f/ | 
"G"g/d/e/f/ g/d/e/g/ g/a/g/e/ d/c/B/A/ | "C"G/G/G/B/ A/G/G/A/ "B7"^A/Bz3/2D | 
"C"E/GB/ A/G/G/A/ "G"B/A/G/E/ "E"z/ee/ | "A"d/B/B/B/ "D"A/B/A/G/ "G"G[gBG] [g2B2G2] | 
z8 | z8 | z8 | z8 | z8 | z8 | z8 | z8 | z8 | z8 | z8 | 


